X: 9566
T: David Adams
R: reel
M: 4/4
K: Amajor
A2cA GABc|dcBA GEFG|A2cA Bcdf|ecdB cAAE|
A2cA GABc|dcBA GEFG|AcEc ABcd|ecdB cAAg||
aAag fddf|bBba geeg|aAag fdaf|ecdB cAAg|
a2ag fddf|b2ba geeg|agae faea|ecdB cAAE||

